FINK
CUT[IM ARM DER LIEBE]
REG[Europa, Mitteleuropa, Deutschland]
KEY[F1045  16  F 6/8]
MEL[1_  3_.42_1_.23_  4_.53_2__
    4_  3_5_+1_6_4_2_  1__.-7__
    1_  3_.42_1_.23_  4_.53_2__
    4_  3_5_+1_6_4_2_  1__-7_1__
    2_  2__3_4__2_  3__4_5__
    +1_  +1__.3__.  2__.6__.
    5__.-7__.  1__.0__ //] >>
FCT[Trost - Lied]
